sedona/img/icons/tile.svg

<svg xmlns="http://www.w3.org/2000/svg" width="20" height="20" fill="none"><path fill="#000" d="M6 3H2v6h4V3ZM18 3h-4v6h4V3ZM12 3H8v6h4V3ZM6 11H2v6h4v-6ZM18 11h-4v6h4v-6ZM12 11H8v6h4v-6Z"/></svg>

<svg width="20" height="20" viewBox="0 0 20 20" fill="none" xmlns="http://www.w3.org/2000/svg">
<path d="M6 3H2V9H6V3Z" fill="black"/>
<path d="M18 3H14V9H18V3Z" fill="black"/>
<path d="M12 3H8V9H12V3Z" fill="black"/>
<path d="M6 11H2V17H6V11Z" fill="black"/>
<path d="M18 11H14V17H18V11Z" fill="black"/>
<path d="M12 11H8V17H12V11Z" fill="black"/>
</svg>
